X:1
T: Miss Plaudy's Reel
C:
R:Reel
Q: 232
K:G
M:4/4
L:1/8
|:d|BG ((3GGG) Bc dg|BG gB aA Ac|BG ((3GGG) Bc de|de ga bg gd|
BG ((3GGG) Bc dg|BG gB aA Ac|BG ((3GGG) Bc de|de ga bg ga|
bg fg eg dg|cg Bg aA Aa|bg fg eg dg|ef ga bg ga|
bg fg eg dg|cg Bg aA Ac|BG cA dB ge|dB cA BG G:|
